actions/22x22-light/dialog-layers.svg

<svg xmlns="http://www.w3.org/2000/svg" viewBox="0 0 22 22">
 <defs id="defs3051">
   <style type="text/css" id="current-color-scheme">
     .ColorScheme-Text {
       color:#4d4d4d;
     }
     </style>
 </defs>
   <path
      style="fill:currentColor;fill-opacity:1;stroke:none"
      d="m11 3-8.4335938 4.2167969 8.4335938 4.2167971 8.433594-4.2167971zm-6.0839844 6.9257812-2.3496094 1.1757808 8.4335938 4.21875 8.433594-4.21875-2.34961-1.1757808-6.083984 3.0429688zm0 3.6816408-2.3496094 1.175781 8.4335938 4.216797 8.433594-4.216797-2.34961-1.175781-6.083984 3.041016z"
      class="ColorScheme-Text" />
</svg>

<svg xmlns="http://www.w3.org/2000/svg" viewBox="0 0 22 22">
  <defs id="defs3051">
    <style type="text/css" id="current-color-scheme">
      .ColorScheme-Text {
        color:#4d4d4d
      }
      </style>
  </defs>
    <path
       style="fill:currentColor;fill-opacity:1;stroke:none"
       class="ColorScheme-Text"
       d="M 11 3 L 2.5664062 7.2167969 L 11 11.433594 L 19.433594 7.2167969 L 11 3 z M 4.9160156 9.9257812 L 2.5664062 11.101562 L 11 15.320312 L 19.433594 11.101562 L 17.083984 9.9257812 L 11 12.96875 L 4.9160156 9.9257812 z M 4.9160156 13.607422 L 2.5664062 14.783203 L 11 19 L 19.433594 14.783203 L 17.083984 13.607422 L 11 16.648438 L 4.9160156 13.607422 z "
        />
</svg>
